src/img/icon-github.svg

<?xml version="1.0" encoding="UTF-8" standalone="no"?>
<svg width="36px" height="36px" viewBox="0 0 36 36" version="1.1" xmlns="http://www.w3.org/2000/svg" xmlns:xlink="http://www.w3.org/1999/xlink">
    <!-- Generator: sketchtool 3.7 (28169) - http://www.bohemiancoding.com/sketch -->
    <title>E1136A2B-9D34-48FA-A221-E56DA21FD49E</title>
    <desc>Created with sketchtool.</desc>
    <defs></defs>
    <g id="Page-1" stroke="none" stroke-width="1" fill="none" fill-rule="evenodd">
        <g id="desktop" transform="translate(-975.000000, -8800.000000)" fill="#FFFFFF">
            <g id="footer" transform="translate(0.000000, 8400.000000)">
                <g id="Group-10" transform="translate(963.000000, 388.000000)">
                    <g id="fb_icon-copy-2">
                        <g id="icon_github" transform="translate(12.000000, 12.000000)">
                            <path d="M3,18.0745081 C3,24.7017833 7.29755364,30.3235029 13.2581417,32.3069892 C14.0086252,32.4451149 14.2821142,31.9819331 14.2821142,31.5841309 C14.2821142,31.2286872 14.2692225,30.2848276 14.2618558,29.033408 C10.0895362,29.9395132 9.20921452,27.0222966 9.20921452,27.0222966 C8.52687314,25.2892784 7.54341754,24.8279382 7.54341754,24.8279382 C6.18149728,23.8978913 7.64655146,23.916308 7.64655146,23.916308 C9.15212253,24.0222045 9.94404371,25.462396 9.94404371,25.462396 C11.2820222,27.7543632 13.4552012,27.0922803 14.3097394,26.7082906 C14.4460235,25.7395684 14.8336966,25.0784063 15.2618865,24.703625 C11.9312134,24.3251604 8.42926425,23.037828 8.42926425,17.2899536 C8.42926425,15.6527026 9.01399675,14.3128825 9.97351054,13.2649682 C9.81880966,12.8855827 9.3040609,11.3597532 10.1208447,9.29523311 C10.1208447,9.29523311 11.3796311,8.89190582 14.2452807,10.8330335 C15.44145,10.49969 16.725099,10.333939 18.0004604,10.3274932 C19.274901,10.333939 20.5576291,10.49969 21.7556401,10.8330335 C24.6194481,8.89190582 25.8763928,9.29523311 25.8763928,9.29523311 C26.6950183,11.3597532 26.1802695,12.8855827 26.0264895,13.2649682 C26.9878449,14.3128825 27.5679732,15.6527026 27.5679732,17.2899536 C27.5679732,23.0525615 24.0604991,24.3205562 20.7196967,24.6916541 C21.2574665,25.1548359 21.7372234,26.0701495 21.7372234,27.4698241 C21.7372234,29.4744897 21.7188066,31.0924031 21.7188066,31.5841309 C21.7188066,31.9856165 21.9895331,32.4524816 22.7501458,32.3060683 C28.7061297,30.3179778 33,24.6999417 33,18.0745081 C33,9.78972343 26.2834034,3.07404769 17.9986187,3.07404769 C9.71659658,3.07404769 3,9.78972343 3,18.0745081 Z" id="Fill-3"></path>
                        </g>
                    </g>
                </g>
            </g>
        </g>
    </g>
</svg>

<svg width="36" height="36" viewBox="0 0 36 36" xmlns="http://www.w3.org/2000/svg"><title>E1136A2B-9D34-48FA-A221-E56DA21FD49E</title><path d="M3 18.075c0 6.627 4.298 12.249 10.258 14.232.75.138 1.024-.325 1.024-.723 0-.355-.013-1.3-.02-2.55-4.172.906-5.053-2.012-5.053-2.012-.682-1.733-1.666-2.194-1.666-2.194-1.362-.93.104-.912.104-.912 1.505.106 2.297 1.546 2.297 1.546 1.338 2.292 3.511 1.63 4.366 1.246.136-.968.524-1.63.952-2.004-3.33-.379-6.833-1.666-6.833-7.414 0-1.637.585-2.977 1.545-4.025-.155-.38-.67-1.905.147-3.97 0 0 1.259-.403 4.124 1.538 1.196-.333 2.48-.5 3.755-.506 1.275.007 2.558.173 3.756.506 2.863-1.941 4.12-1.538 4.12-1.538.819 2.065.304 3.59.15 3.97.962 1.048 1.542 2.388 1.542 4.025 0 5.763-3.508 7.03-6.848 7.402.537.463 1.017 1.378 1.017 2.778 0 2.004-.018 3.622-.018 4.114 0 .402.27.868 1.031.722C28.706 30.318 33 24.7 33 18.075 33 9.79 26.283 3.074 17.999 3.074 9.717 3.074 3 9.79 3 18.074z" fill="#FFF" fill-rule="evenodd"/></svg>
